X: 1
T: the Fiddlers' Welcome to Los Angeles
C: Colin Gordon
R: march
Z: John Chambers <jc:trillian.mit.edu>
M: C|
L: 1/8
K: A
AB |   "A"c2BA {g}a2e2 | "D"fgaf "E7"e2AB |   "A"c2BA "F#m"e2dc | "Bm"c2B2 "E7"B2AB |
y6 |   "A"c2BA {g}a2e2 | "D"fgaf "E7"e2AB |   "A"c2e2  "E7"efed | "A"c2A2      A2   |]
fg | "F#m"agfa "E"gfeg | "D"fedf "E7"e2AB |   "A"c2e2 "F#m"efeA | "Bm"c2B2 "E7"B2AB |
y4 |   "A"c2BA {g}a2e2 | "D"fgaf "E7"e2fg | "F#m"a2A2  "E7"B2AB | "A"c2A2      A2   |]
